src/images/icons/menu.svg

<svg width="32" height="32" viewBox="0 0 32 32" fill="currentColor" xmlns="http://www.w3.org/2000/svg">
<path fill-rule="evenodd" clip-rule="evenodd" d="M3.0598 29.0131L2.61537 27.2353C2.53584 26.9178 2.78377 26.6 3.11114 26.6C3.33634 26.6 3.52361 26.4226 3.54613 26.1943C3.7367 24.2626 4.521 22.4328 5.79691 20.9598C7.13764 19.412 8.94578 18.3453 10.9455 17.9191C11.0037 17.9067 11.0445 17.8524 11.0445 17.7778C11.0445 17.2886 11.2388 16.8195 11.5847 16.4736C12.2951 15.7632 13.4828 15.7632 14.1932 16.4736C14.5391 16.8195 14.7334 17.2886 14.7334 17.7778C14.7334 17.8524 14.7742 17.9067 14.8324 17.9191C16.8321 18.3453 18.6402 19.412 19.981 20.9598C21.2569 22.4328 22.0412 24.2626 22.2317 26.1943C22.2543 26.4226 22.4415 26.6 22.6667 26.6C22.9941 26.6 23.242 26.9178 23.1625 27.2353L22.7181 29.0131C22.6627 29.2341 22.4502 29.4 22.2223 29.4H3.55559C3.32771 29.4 3.11518 29.2341 3.0598 29.0131ZM18.6471 21.0378C17.093 19.5616 15.0324 18.7369 12.8889 18.7334C10.7455 18.7369 8.68484 19.5616 7.13077 21.0378C5.70346 22.3937 4.80309 24.2044 4.5777 26.149C4.54962 26.3913 4.74481 26.6 4.99437 26.6H20.7835C21.0331 26.6 21.2283 26.3913 21.2002 26.149C20.9748 24.2044 20.0744 22.3937 18.6471 21.0378Z"/>
<path fill-rule="evenodd" clip-rule="evenodd" d="M27.0324 2.60612C27.3377 2.55854 27.6222 2.80217 27.6223 3.1111V4.38888C27.6223 4.6282 27.8163 4.82221 28.0556 4.82221H28.8889C29.16 4.82221 29.4 5.06221 29.4 5.33332V28.8889C29.4 29.0244 29.3462 29.1544 29.2503 29.2503C29.1545 29.3461 29.0245 29.4 28.8889 29.4H24.0001C23.7178 29.4 23.4889 29.1712 23.4889 28.8889C23.4889 28.6066 23.7178 28.3778 24.0001 28.3778H27.9445C28.1838 28.3778 28.3778 28.1838 28.3778 27.9444V6.27777C28.3778 6.03844 28.1838 5.84443 27.9445 5.84443H13.8334C13.5941 5.84443 13.4 6.03844 13.4 6.27777V14.6667C13.4 14.9489 13.1712 15.1778 12.8889 15.1778C12.6066 15.1778 12.3778 14.9489 12.3778 14.6667V5.33285C12.3796 5.08871 12.5722 4.86553 12.8143 4.8277L27.0324 2.60612ZM10.3354 21.0264C9.14071 21.5279 8.12271 22.3679 7.40415 23.4384C7.24951 23.6688 6.94118 23.755 6.69607 23.6134C6.45257 23.4728 6.36487 23.1576 6.52263 22.9185C7.35385 21.6587 8.54219 20.6705 9.94009 20.0838C11.3379 19.4971 12.8754 19.3412 14.3566 19.6303C14.638 19.6852 14.8015 19.9688 14.7311 20.2412C14.6603 20.5153 14.3828 20.6747 14.1102 20.6238C12.8428 20.3868 11.5302 20.525 10.3354 21.0264ZM5.66522 24.6732C5.75691 24.4013 6.06215 24.2785 6.32227 24.3837C6.58163 24.4886 6.70503 24.7826 6.61888 25.044C6.5327 25.3055 6.25854 25.4685 5.98757 25.3985C5.63985 25.3087 5.56457 24.9717 5.66522 24.6732Z"/>
<path fill-rule="evenodd" clip-rule="evenodd" d="M26.3477 9.61793C26.3586 8.36231 25.2947 7.29833 24.039 7.30924C23.0403 7.31791 22.4399 7.98057 21.7849 8.63554C21.1325 9.28798 20.9366 10.2976 21.2954 11.1458C21.4796 11.5812 20.9809 12.1372 20.5825 11.7389L19.9358 11.0922C19.7917 10.9481 19.7692 10.7179 19.854 10.5174C20.2129 9.66916 20.017 8.65955 19.3645 8.0071L18.4219 7.0641C17.9559 6.59797 17.2331 7.32057 17.699 7.7867L18.6416 8.72959C19.3645 9.45793 19.0411 10.1953 18.4918 9.64594L17.165 8.31909C16.6989 7.85305 15.9762 8.57577 16.4422 9.04182L17.7704 10.37C18.3199 10.9195 17.576 11.1458 16.8506 10.5207L15.9076 9.57809C15.4415 9.11213 14.7189 9.83497 15.185 10.3009L16.128 11.2436C16.7805 11.896 17.7901 12.0919 18.6383 11.7331C18.8388 11.6483 19.069 11.6708 19.2131 11.8149L19.8598 12.4616C20.029 12.6308 20.029 12.9052 19.8598 13.0744L16.4422 16.492C15.9762 16.958 16.6989 17.6808 17.165 17.2147L20.5825 13.7972C20.7518 13.6279 21.0261 13.6279 21.1954 13.7972L24.6129 17.2147C25.079 17.6808 25.8017 16.958 25.3356 16.492L21.9181 13.0744C21.5199 12.6762 22.0756 12.1773 22.511 12.3612C23.3592 12.7195 24.3685 12.5239 25.0214 11.8721C25.6764 11.2171 26.339 10.6167 26.3477 9.61793ZM20.0001 18.6H24.8889C25.5481 18.6 25.5481 19.6222 24.8889 19.6222H20.0001C19.3409 19.6222 19.3409 18.6 20.0001 18.6ZM21.7778 20.3778H24.8889C25.5481 20.3778 25.5481 21.4 24.8889 21.4H21.7778C21.1187 21.4 21.1187 20.3778 21.7778 20.3778ZM23.1112 22.1556H24.8889C25.5481 22.1556 25.5481 23.1778 24.8889 23.1778H23.1112C22.452 23.1778 22.452 22.1556 23.1112 22.1556ZM11.6223 6.66668V13.7778C11.6223 14.0601 11.3934 14.2889 11.1112 14.2889C10.8289 14.2889 10.6 14.0601 10.6 13.7778V6.66668C10.6 6.3844 10.8289 6.15557 11.1112 6.15557C11.3934 6.15557 11.6223 6.3844 11.6223 6.66668ZM26.6667 23.1778C26.3844 23.1778 26.1556 22.949 26.1556 22.6667C26.1556 22.3844 26.3844 22.1556 26.6667 22.1556C26.949 22.1556 27.1778 22.3844 27.1778 22.6667C27.1778 22.949 26.949 23.1778 26.6667 23.1778ZM26.6667 21.4C26.3844 21.4 26.1556 21.1712 26.1556 20.8889C26.1556 20.6066 26.3844 20.3778 26.6667 20.3778C26.949 20.3778 27.1778 20.6066 27.1778 20.8889C27.1778 21.1712 26.949 21.4 26.6667 21.4ZM27.1778 19.1111C27.1778 19.3934 26.949 19.6222 26.6667 19.6222C26.3844 19.6222 26.1556 19.3934 26.1556 19.1111C26.1556 18.8288 26.3844 18.6 26.6667 18.6C26.949 18.6 27.1778 18.8288 27.1778 19.1111Z"/>
</svg>

<svg xmlns="http://www.w3.org/2000/svg" fill="currentColor" viewBox="0 0 32 32">
  <path d="M3.124 28.997a.444.444 0 0 0 .432.336h18.666a.444.444 0 0 0 .431-.336l.445-1.778a.445.445 0 0 0-.431-.552.51.51 0 0 1-.502-.466 9.338 9.338 0 0 0-7.346-8.217c-.097-.02-.152-.108-.152-.206a1.778 1.778 0 1 0-3.556 0c0 .098-.056.186-.152.206a9.34 9.34 0 0 0-7.347 8.217.51.51 0 0 1-.5.466.444.444 0 0 0-.432.552l.444 1.778Zm18.835-.89a.445.445 0 0 1-.43.338H4.248a.444.444 0 0 1 0-.89h17.28c.288 0 .5.272.43.553ZM12 17.778a.889.889 0 1 1 1.778 0c0 .025-.025.043-.05.041a9.29 9.29 0 0 0-.84-.04c-.283 0-.562.015-.839.04-.024.002-.049-.016-.049-.04Zm.889.89a8.448 8.448 0 0 1 8.377 7.474.477.477 0 0 1-.483.526H4.994a.477.477 0 0 1-.483-.526 8.448 8.448 0 0 1 8.378-7.474Z"/>
  <path d="M21.96 28.108a.445.445 0 0 1-.432.337H4.25a.444.444 0 0 1 0-.89h17.278c.29 0 .501.272.431.553ZM12 17.778a.889.889 0 1 1 1.778 0c0 .024-.025.042-.05.04a9.29 9.29 0 0 0-.84-.04c-.283 0-.562.015-.839.04-.024.002-.049-.016-.049-.04Z"/>
  <path fill-rule="evenodd" d="m3.06 29.013-.445-1.778a.512.512 0 0 1 .496-.635.444.444 0 0 0 .435-.406 9.406 9.406 0 0 1 7.4-8.275c.058-.012.098-.067.098-.141a1.844 1.844 0 0 1 3.69 0c0 .075.04.129.098.141a9.406 9.406 0 0 1 7.4 8.275c.022.229.21.406.435.406a.512.512 0 0 1 .495.635l-.444 1.778a.512.512 0 0 1-.496.387H3.556a.511.511 0 0 1-.496-.387Zm20.038-1.794a.445.445 0 0 0-.431-.552.51.51 0 0 1-.502-.466 9.338 9.338 0 0 0-7.346-8.217c-.097-.02-.152-.108-.152-.206a1.778 1.778 0 1 0-3.556 0c0 .098-.056.186-.152.206a9.34 9.34 0 0 0-7.347 8.217.51.51 0 0 1-.5.466.444.444 0 0 0-.432.552l.444 1.778a.444.444 0 0 0 .432.336h18.666a.444.444 0 0 0 .431-.336l.445-1.778Zm-4.451-6.181a8.38 8.38 0 0 0-5.758-2.305 8.38 8.38 0 0 0-8.311 7.416.41.41 0 0 0 .416.451h15.79a.41.41 0 0 0 .416-.451 8.38 8.38 0 0 0-2.553-5.111Zm-5.758-2.371a8.448 8.448 0 0 1 8.377 7.474.477.477 0 0 1-.483.526H4.994a.477.477 0 0 1-.483-.526 8.448 8.448 0 0 1 8.378-7.474Z" clip-rule="evenodd"/>
  <path d="M6.578 22.955a.425.425 0 0 0 .151.6c.213.123.483.05.62-.154a6.68 6.68 0 0 1 6.773-2.843.468.468 0 0 0 .544-.333.425.425 0 0 0-.322-.53 7.567 7.567 0 0 0-7.766 3.26Zm-.883 1.84a.427.427 0 0 0 .31.539c.234.06.475-.08.55-.31a.465.465 0 0 0-.258-.579.427.427 0 0 0-.569.25 7.284 7.284 0 0 0-.033.1ZM28.889 4.89h-.834a.5.5 0 0 1-.5-.5V3.11a.445.445 0 0 0-.512-.439L12.825 4.894a.005.005 0 0 0-.005.004.005.005 0 0 1-.004.005.438.438 0 0 0-.372.43v9.334a.444.444 0 0 0 .89 0v-8.39a.5.5 0 0 1 .5-.5h14.11a.5.5 0 0 1 .5.5v21.668a.5.5 0 0 1-.5.5H24a.444.444 0 1 0 0 .888h4.889a.444.444 0 0 0 .444-.444V5.333a.444.444 0 0 0-.444-.444Zm-2.222-.5a.5.5 0 0 1-.5.5H25.05c-.617 0-.687-.899-.077-.994l1.117-.175a.5.5 0 0 1 .577.494v.175Z"/>
  <path d="M26.667 4.389a.5.5 0 0 1-.5.5H25.05c-.617 0-.687-.899-.077-.994l1.117-.175a.5.5 0 0 1 .577.494v.175Z"/>
  <path fill-rule="evenodd" d="M27.032 2.606a.51.51 0 0 1 .59.505V4.39c0 .24.194.433.433.433h.834a.511.511 0 0 1 .511.511V28.89a.511.511 0 0 1-.511.511H24a.511.511 0 1 1 0-1.022h3.944c.24 0 .434-.194.434-.433V6.277a.433.433 0 0 0-.434-.434h-14.11a.433.433 0 0 0-.434.434v8.389a.511.511 0 1 1-1.022 0V5.333a.505.505 0 0 1 .404-.491.07.07 0 0 1 .032-.014l14.218-2.222Zm-16.697 18.42a6.612 6.612 0 0 0-2.93 2.412.535.535 0 0 1-.709.175.491.491 0 0 1-.173-.694 7.633 7.633 0 0 1 7.834-3.289.492.492 0 0 1 .374.611.535.535 0 0 1-.62.383 6.612 6.612 0 0 0-3.776.402Zm-4.703 3.75c.01-.035.022-.069.033-.103a.493.493 0 0 1 .657-.29c.26.106.383.4.297.661a.532.532 0 0 1-.631.354.493.493 0 0 1-.356-.623Zm21.41-22.104a.444.444 0 0 1 .513.44v1.277a.5.5 0 0 0 .5.5h.834a.444.444 0 0 1 .444.444V28.89a.444.444 0 0 1-.444.444H24a.444.444 0 1 1 0-.888h3.944a.5.5 0 0 0 .5-.5V6.277a.5.5 0 0 0-.5-.5h-14.11a.5.5 0 0 0-.5.5v8.389a.444.444 0 0 1-.89 0V5.333a.438.438 0 0 1 .372-.43.005.005 0 0 0 .004-.005c0-.002.002-.004.005-.004l14.218-2.222ZM6.73 23.556a.425.425 0 0 1-.15-.6 7.567 7.567 0 0 1 7.765-3.26c.24.047.384.29.322.529a.468.468 0 0 1-.544.333 6.68 6.68 0 0 0-6.773 2.843.468.468 0 0 1-.62.155Zm-.725 1.778a.427.427 0 0 1-.309-.538c.01-.034.022-.068.033-.101a.427.427 0 0 1 .57-.25.467.467 0 0 1 .258.578.465.465 0 0 1-.552.311Z" clip-rule="evenodd"/>
  <path d="m16.803 10.568-.943-.943a.444.444 0 0 0-.628.629l.943.943a2.223 2.223 0 0 0 2.437.475c.22-.093.48-.072.648.096l.647.646a.5.5 0 0 1 0 .708l-3.418 3.417a.445.445 0 0 0 .629.629l3.417-3.418a.5.5 0 0 1 .707 0l3.418 3.418a.444.444 0 0 0 .628-.629l-3.417-3.417a.5.5 0 0 1 0-.707l.018-.019c.168-.168.43-.189.648-.096a2.225 2.225 0 0 0 2.437-.475l.629-.628a2.224 2.224 0 0 0-1.564-3.821 2.222 2.222 0 0 0-1.579.678l-.628.629a2.222 2.222 0 0 0-.475 2.437c.092.219.072.48-.096.648l-.019.018a.5.5 0 0 1-.707 0l-.646-.647c-.168-.168-.189-.429-.096-.648a2.221 2.221 0 0 0-.476-2.437l-.942-.943a.444.444 0 0 0-.629.629l.943.943a1.333 1.333 0 0 1 .38.822c.03.344-.38.432-.624.188l-1.327-1.327a.444.444 0 0 0-.629.629l1.328 1.328c.244.244.157.654-.187.625a1.334 1.334 0 0 1-.827-.38Zm5.657-1.257.629-.628a1.333 1.333 0 0 1 1.885 1.885l-.628.629a1.335 1.335 0 0 1-2.193-.422 1.333 1.333 0 0 1 .307-1.464Zm3.762 9.8a.444.444 0 1 1 .89 0 .444.444 0 0 1-.89 0Zm0 1.778a.444.444 0 1 1 .89 0 .444.444 0 0 1-.89 0Zm0 1.778a.444.444 0 1 1 .889 0 .444.444 0 0 1-.889 0Zm-6.667-3.556c0-.245.2-.444.445-.444h4.889a.444.444 0 0 1 0 .889H20a.444.444 0 0 1-.445-.445Zm1.778 1.778c0-.245.2-.444.445-.444h3.11a.444.444 0 0 1 0 .888h-3.11a.444.444 0 0 1-.445-.444Zm1.334 1.778c0-.246.199-.445.444-.445h1.778a.444.444 0 1 1 0 .89H23.11a.444.444 0 0 1-.444-.445Zm-12-16a.444.444 0 1 1 .889 0v7.11a.444.444 0 1 1-.89 0v-7.11Z"/>
  <path d="m22.46 9.311.629-.628a1.333 1.333 0 0 1 1.885 1.885l-.628.629a1.335 1.335 0 0 1-2.193-.422 1.333 1.333 0 0 1 .307-1.464Z"/>
  <path fill-rule="evenodd" d="M24.974 11.825a2.225 2.225 0 0 1-2.437.475c-.219-.093-.48-.072-.648.096l-.018.018a.5.5 0 0 0 0 .708l3.417 3.417a.444.444 0 1 1-.628.629l-3.418-3.418a.5.5 0 0 0-.707 0l-3.417 3.418a.445.445 0 0 1-.629-.629l3.418-3.417a.5.5 0 0 0 0-.707l-.647-.647c-.168-.168-.429-.189-.648-.096a2.223 2.223 0 0 1-2.437-.476l-.943-.942a.444.444 0 0 1 .628-.629l.944.943a1.334 1.334 0 0 0 .826.38c.344.03.431-.381.188-.625l-1.329-1.328a.444.444 0 0 1 .629-.629l1.327 1.327c.244.244.655.156.625-.188a1.333 1.333 0 0 0-.38-.822l-.944-.943a.444.444 0 1 1 .629-.629l.942.943a2.222 2.222 0 0 1 .476 2.437c-.093.22-.072.48.096.648l.646.647a.5.5 0 0 0 .707 0l.019-.018c.168-.168.188-.43.096-.648a2.223 2.223 0 0 1 .475-2.437l.628-.629a2.222 2.222 0 1 1 3.143 3.143l-.629.628Zm.675-.581a2.29 2.29 0 1 0-3.236-3.236l-.628.628a2.288 2.288 0 0 0-.49 2.51c.085.2.063.43-.082.575l-.018.018a.433.433 0 0 1-.613 0l-.646-.647c-.144-.144-.167-.374-.082-.575a2.29 2.29 0 0 0-.49-2.51l-.942-.943a.511.511 0 1 0-.723.723l.942.943a1.267 1.267 0 0 1 .362.78.237.237 0 0 1-.038.165.216.216 0 0 1-.122.08.374.374 0 0 1-.351-.11L17.165 8.32a.511.511 0 1 0-.723.723l1.328 1.328a.374.374 0 0 1 .11.35.217.217 0 0 1-.08.123.238.238 0 0 1-.164.04 1.267 1.267 0 0 1-.785-.361v-.001l-.943-.943a.511.511 0 0 0-.723.723l.943.943a2.289 2.289 0 0 0 2.51.49c.2-.086.43-.063.575.08l.647.648a.433.433 0 0 1 0 .612l-3.418 3.418a.511.511 0 1 0 .723.723l3.418-3.418a.43.43 0 0 1 .612 0l3.418 3.418a.511.511 0 1 0 .723-.723l-3.418-3.418a.433.433 0 0 1 0-.612l.018-.019c.145-.144.375-.166.575-.082a2.29 2.29 0 0 0 2.51-.489l.628-.628ZM20 18.6h4.889a.511.511 0 0 1 0 1.022H20a.511.511 0 0 1 0-1.022Zm1.778 1.778h3.11a.511.511 0 1 1 0 1.022h-3.11a.511.511 0 1 1 0-1.022Zm1.333 1.778h1.778a.511.511 0 1 1 0 1.022H23.11a.511.511 0 1 1 0-1.022ZM11.622 6.666v7.112a.511.511 0 1 1-1.022 0V6.667a.511.511 0 1 1 1.022 0Zm15.045 16.512a.511.511 0 1 1 0-1.023.511.511 0 0 1 0 1.023Zm0-1.778a.511.511 0 1 1 0-1.022.511.511 0 0 1 0 1.022Zm.51-2.289a.511.511 0 1 1-1.022 0 .511.511 0 0 1 1.023 0Zm-.51-.444a.444.444 0 1 0 0 .889.444.444 0 0 0 0-.89Zm0 1.777a.444.444 0 1 0 0 .89.444.444 0 0 0 0-.89Zm0 1.778a.444.444 0 1 0 0 .89.444.444 0 0 0 0-.89ZM20 18.667a.444.444 0 1 0 0 .889h4.889a.444.444 0 0 0 0-.89H20Zm1.778 1.777a.444.444 0 1 0 0 .89h3.11a.444.444 0 0 0 0-.89h-3.11Zm1.333 1.778a.444.444 0 1 0 0 .89h1.778a.444.444 0 1 0 0-.89H23.11Zm-12-16a.444.444 0 0 0-.444.445v7.11a.444.444 0 1 0 .889 0v-7.11a.444.444 0 0 0-.445-.445Z" clip-rule="evenodd"/>
</svg>
